src/_includes/clients/cefla.svg

<svg role="img" aria-labelledby="cefla-svg" viewBox="0 0 116 88" fill="none" xmlns="http://www.w3.org/2000/svg">
  <title id="cefla-svg">Cefla</title>
  <g clip-path="url(#clip0_1837_532)">
    <path d="M0 41.345C0.056 41.129 0.129 40.912 0.162 40.695C0.794 36.597 3.458 33.857 7.602 33.165C10.336 32.708 13.054 32.812 15.605 34.009C18.103 35.179 19.619 37.097 19.865 39.894C19.873 40.002 19.865 40.111 19.865 40.244H12.868C12.8427 40.2066 12.8218 40.1663 12.806 40.124C12.539 38.546 11.862 37.91 10.351 37.819C8.946 37.736 7.896 38.456 7.516 39.847C7.07229 41.4923 7.06437 43.2247 7.493 44.874C7.874 46.388 8.759 47.006 10.35 46.963C11.701 46.927 12.509 46.206 12.83 44.757C12.852 44.649 12.872 44.541 12.902 44.399H19.945C19.845 46.079 19.313 47.571 18.211 48.843C17.061 50.173 15.589 50.999 13.896 51.43C11.497 52.04 9.073 52.067 6.678 51.411C2.905 50.38 0.604 47.682 0.135 43.84C0.102846 43.6897 0.0576753 43.5425 0 43.4L0 41.345ZM10.905 0H16.357C19.9 0.084 23.445 0.14 26.98 0.257C33.588 0.474 40.18 0.931 46.756 1.63C53.205 2.317 59.614 3.253 65.964 4.57C74.476 6.34 82.8 8.71 90.717 12.36C95.928 14.766 100.82 17.675 105.092 21.53C109.216 25.253 112.442 29.587 114.196 34.898C115.287 38.1742 115.7 41.6381 115.41 45.079C115.393 45.276 115.392 45.474 115.385 45.672C114.48 53.652 110.817 60.363 105.622 66.335C100.158 72.62 93.527 77.413 86.075 81.114C78.9951 84.6404 71.3736 86.9535 63.528 87.957C63.2758 88.0008 63.0189 88.0108 62.764 87.987C64.754 87.372 66.793 86.877 68.726 86.119C81.843 80.985 91.284 72.069 96.452 58.979C99.178 52.064 99.647 44.926 97.613 37.71C96.163 32.564 93.498 28.082 89.92 24.12C85.595 19.329 80.376 15.716 74.653 12.772C67.323 8.999 59.529 6.51 51.506 4.672C43.546 2.852 35.476 1.744 27.341 1.066C21.4 0.57 15.45 0.316 9.487 0.226V0.04L10.905 0ZM78.825 38.923H71.949C71.972 37.147 72.627 35.719 74.065 34.681C75.476 33.665 77.118 33.275 78.811 33.091C81.488 32.801 84.154 32.848 86.74 33.681C87.342 33.877 87.92 34.142 88.46 34.471C90.164 35.501 90.7 37.129 90.703 39C90.708 42.317 90.708 45.635 90.703 48.952C90.703 49.61 90.799 50.201 91.337 50.661C91.447 50.755 91.447 50.971 91.525 51.191C91.295 51.206 91.137 51.224 90.98 51.225C88.908 51.225 86.836 51.22 84.764 51.24C84.437 51.24 84.314 51.145 84.254 50.844C84.174 50.443 84.047 50.051 83.919 49.57C83.689 49.745 83.512 49.885 83.329 50.018C80.696 51.947 77.761 52.338 74.687 51.456C72.197 50.743 70.919 48.501 71.143 45.738C71.315 43.618 72.362 42.228 74.4 41.534C76.342 40.872 78.36 40.656 80.375 40.377C81.2664 40.2348 82.1442 40.0173 82.999 39.727C83.472 39.585 83.792 39.147 83.782 38.657C83.798 38.019 83.465 37.487 82.762 37.381C81.9424 37.2518 81.1096 37.2283 80.284 37.311C79.407 37.411 78.969 38.074 78.825 38.923V38.923ZM83.788 43.377C82.528 43.745 81.396 44.064 80.275 44.411C79.913 44.527 79.564 44.681 79.234 44.87C78.49 45.288 78.242 45.75 78.37 46.384C78.503 47.04 79.018 47.521 79.788 47.598C80.3109 47.6524 80.8385 47.6423 81.359 47.568C82.707 47.365 83.457 46.618 83.665 45.275C83.76 44.681 83.75 44.067 83.788 43.377ZM42.286 43.95H28.982C28.752 45.413 29.702 46.93 31.059 47.33C31.849 47.562 32.651 47.578 33.415 47.293C33.822 47.14 34.305 46.895 34.505 46.55C34.824 45.99 35.235 45.98 35.758 45.984C37.683 46.001 39.607 45.99 41.605 45.99C41.524 46.291 41.472 46.547 41.387 46.79C40.672 48.752 39.315 50.134 37.377 50.888C34.192 52.128 30.922 52.272 27.671 51.218C24.152 50.076 21.961 46.958 21.841 43.15C21.798 41.81 21.893 40.482 22.299 39.195C23.172 36.445 25.002 34.589 27.727 33.626C29.988 32.828 32.323 32.724 34.66 33.187C38.658 33.979 41.326 36.777 41.966 40.795C42.121 41.804 42.174 42.83 42.286 43.95V43.95ZM35.234 40.411C35.131 39.139 34.808 38.031 33.633 37.465C32.499 36.925 31.3 36.903 30.211 37.635C29.241 38.283 28.953 39.279 28.912 40.411H35.234ZM47.028 51.19V37.559H44.848V33.598H47.028C47.028 33.363 47.021 33.175 47.028 32.989C47.065 32.305 47.058 31.616 47.155 30.941C47.482 28.655 48.818 27.269 51.125 26.889C52.032 26.739 52.968 26.743 53.892 26.719C54.942 26.693 55.992 26.713 57.065 26.713V31.06C56.125 31.176 55.001 30.833 54.371 31.782C54.071 32.232 54.086 32.892 53.934 33.542H57.051V37.544H54.088V51.19H47.028ZM68.731 51.204H61.656V27.307H68.731V51.204V51.204Z" fill="#ED2127"/>
  </g>
  <defs>
    <clipPath id="clip0_1837_532">
      <rect width="116" height="88" fill="white"/>
    </clipPath>
  </defs>
</svg>

<svg role="img" aria-labelledby="cefla-svg" xmlns="http://www.w3.org/2000/svg" viewBox="0 0 116 88">
    <title id="cefla-svg">Cefla</title>
    <path d="M0 41.3l.2-.6a8.6 8.6 0 017.4-7.5c2.7-.5 5.5-.4 8 .8 2.5 1.2 4 3.1 4.3 5.9v.3h-7c-.4-1.7-1-2.3-2.5-2.4-1.5 0-2.5.7-2.9 2a9.8 9.8 0 000 5c.4 1.6 1.3 2.2 2.9 2.2 1.3 0 2.1-.8 2.4-2.2l.1-.4h7a7.2 7.2 0 01-1.7 4.4 8.2 8.2 0 01-4.3 2.6 14 14 0 01-7.2 0c-3.8-1-6.1-3.7-6.6-7.6a2.6 2.6 0 00-.1-.4v-2zM10.9 0h5.5L27 .3a271.3 271.3 0 0139 4.3c8.5 1.7 16.8 4.1 24.7 7.8a56.5 56.5 0 0114.4 9.1c4.1 3.8 7.3 8 9.1 13.4a25.5 25.5 0 011.2 10.2v.6c-1 8-4.6 14.7-9.8 20.6a62 62 0 01-19.5 14.8A70.7 70.7 0 0163.5 88a2.9 2.9 0 01-.7 0c2-.6 4-1.1 6-1.9A46.7 46.7 0 0096.4 59 32.6 32.6 0 0089.9 24a52.5 52.5 0 00-15.2-11.3 98 98 0 00-23.2-8.1c-8-1.8-16-3-24.2-3.6C21.4.6 15.4.3 9.5.2V0h1.4zm68 39h-7a5 5 0 012.2-4.3c1.4-1 3-1.4 4.7-1.6a19 19 0 018 .6c.5.2 1.1.4 1.7.8 1.7 1 2.2 2.6 2.2 4.5v10c0 .6.1 1.2.6 1.7l.2.5h-6.7c-.4 0-.5 0-.5-.4l-.4-1.2-.6.4a9.5 9.5 0 01-8.6 1.5c-2.5-.8-3.8-3-3.6-5.8a4.5 4.5 0 013.3-4.2c2-.6 4-.8 6-1.1a16 16 0 002.6-.7c.5-.1.8-.6.8-1 0-.7-.3-1.2-1-1.3a9.7 9.7 0 00-2.5 0c-.9 0-1.3.7-1.5 1.5zm4.9 4.4l-3.5 1-1 .5c-.8.4-1 .9-1 1.5.2.6.7 1.1 1.5 1.2a6.4 6.4 0 001.6 0c1.3-.2 2-1 2.3-2.3v-2zm-41.5.6H29c-.2 1.4.7 3 2 3.3.8.3 1.7.3 2.4 0 .4-.2 1-.4 1.1-.7.3-.6.7-.6 1.3-.6h5.8l-.2.8c-.7 2-2 3.3-4 4a14.1 14.1 0 01-9.7.4 8.5 8.5 0 01-5.9-8c0-1.4 0-2.7.5-4a8.3 8.3 0 015.4-5.6 13 13 0 017-.4c4 .8 6.6 3.6 7.3 7.6l.3 3.1zm-7-3.6c-.2-1.3-.5-2.4-1.7-3a3.3 3.3 0 00-3.4.2c-1 .7-1.2 1.7-1.3 2.8h6.3zM47 51.2V37.6h-2.2v-4H47V33c0-.7 0-1.4.2-2a4.4 4.4 0 014-4.1c.8-.2 1.8-.2 2.7-.2H57v4.4c-1 0-2.1-.3-2.7.7-.3.4-.3 1-.5 1.7h3.2v4h-3v13.7h-7zm21.7 0h-7V27.3h7v23.9z"/>
</svg>
